assets/svg/icon-ui-pencil-blue.svg

<?xml version="1.0" encoding="UTF-8" standalone="no"?>
<svg width="32px" height="32px" viewBox="0 0 32 32" version="1.1" xmlns="http://www.w3.org/2000/svg" xmlns:xlink="http://www.w3.org/1999/xlink">
    <!-- Generator: Sketch 3.8.3 (29802) - http://www.bohemiancoding.com/sketch -->
    <title>blue/icon-ui-pencil-blue</title>
    <desc>Created with Sketch.</desc>
    <defs></defs>
    <g id="blue,-base" stroke="none" stroke-width="1" fill="none" fill-rule="evenodd">
        <g id="icons,-utility-(blue)" transform="translate(-273.000000, -633.000000)" fill="#1055FF">
            <g id="blue/icon-ui-pencil-blue" transform="translate(273.000000, 633.000000)">
                <g id="Fill-67">
                    <g id="PaaS">
                        <g id="products">
                            <g id="Products">
                                <g id="PaaS">
                                    <g id="Features">
                                        <g id="PaaS-List">
                                            <g id="Logging">
                                                <path d="M29.7444462,5.09471608 L28.001232,6.83793678 L25.162341,3.9990349 L26.905555,2.2558142 C27.1153584,2.04567436 27.3604086,2.01411982 27.4883048,2.01411982 C27.6155296,2.01411982 27.861587,2.04567436 28.0713902,2.2558142 L29.7444462,3.9285407 C29.9542494,4.13868054 29.985804,4.38406748 29.985804,4.5116284 C29.985804,4.63918932 29.9542494,4.88457624 29.7444462,5.09471608 L29.7444462,5.09471608 L29.7444462,5.09471608 Z M6.60129026,27.7733696 L5.33307096,28.2171472 L3.78321166,26.6666108 L4.22631632,25.3997294 C4.34783444,25.051958 4.75166392,24.409118 5.0111487,24.1496324 L22.7292934,6.43142026 L23.6473222,7.3494505 C23.6191246,7.36824894 23.5875702,7.38100504 23.5627296,7.40584586 L7.64452966,23.3244418 C7.44781804,23.5208186 7.44781804,23.8397208 7.64452966,24.0364332 C7.74288548,24.1347894 7.87145298,24.1837996 8.00069184,24.1837996 C8.12925932,24.1837996 8.2581625,24.1347894 8.35651832,24.0364332 L24.2747182,8.1178372 C24.2995588,8.0929964 24.312315,8.06177754 24.3311132,8.03324418 L25.568856,9.27032216 L7.8500398,26.9888698 C7.59055502,27.2486914 6.94872462,27.651851 6.60129026,27.7733696 L6.60129026,27.7733696 Z M23.4419534,5.71942892 L24.4503524,4.71102626 L27.2892434,7.54992814 L26.2808446,8.5583308 L26.2808446,8.5583308 L23.4419534,5.71942892 L23.4419534,5.71942892 L23.4419534,5.71942892 Z M29.4953676,0.8314958 C28.941151,0.27727716 28.214728,0 27.4883048,0 C26.7618816,0 26.0354586,0.27727716 25.4809064,0.8314958 L3.5871714,22.725314 C3.1125123,23.2006462 2.54721816,24.099615 2.32499444,24.7340628 L0.0685174432,31.1852886 C-0.106710315,31.6864686 0.0651605896,32 0.458583834,32 C0.562646296,32 0.682150284,31.978516 0.815081688,31.9318556 L7.26594728,29.6746986 C7.90005692,29.4531454 8.799358,28.8878492 9.27468848,28.412517 L31.1684234,6.51903448 C32.2771922,5.41026152 32.2771922,3.61299526 31.1684234,2.504558 L29.4953676,0.8314958 L29.4953676,0.8314958 Z" id="Fill-67"></path>
                                            </g>
                                        </g>
                                    </g>
                                </g>
                            </g>
                        </g>
                    </g>
                </g>
            </g>
        </g>
    </g>
</svg>

<svg width="32" height="32" viewBox="0 0 32 32" xmlns="http://www.w3.org/2000/svg"><title>blue/icon-ui-pencil-blue</title><path d="M29.744 5.095l-1.743 1.743-2.839-2.839 1.744-1.743a.82.82 0 0 1 1.165 0l1.673 1.673a.822.822 0 0 1 0 1.166zM6.601 27.773l-1.268.444-1.55-1.55.443-1.267c.122-.348.526-.99.785-1.25L22.73 6.43l.918.918c-.028.02-.06.032-.084.057L7.645 23.324a.503.503 0 1 0 .712.712L24.275 8.118c.025-.025.037-.056.056-.085L25.57 9.27 7.85 26.99c-.26.26-.901.663-1.249.784zM23.442 5.72l1.008-1.008 2.84 2.839-1.01 1.008-2.838-2.839zM29.495.831A2.83 2.83 0 0 0 27.488 0c-.726 0-1.453.277-2.007.831L3.587 22.725c-.474.476-1.04 1.375-1.262 2.01l-2.256 6.45c-.176.501-.004.815.39.815.104 0 .223-.021.356-.068l6.45-2.257c.635-.222 1.534-.787 2.01-1.262L31.168 6.519a2.838 2.838 0 0 0 0-4.014L29.495.83z" fill="#1055FF" fill-rule="evenodd"/></svg>
